X:1
T:The Two Sisters
M:6/8
L:1/8
K:F
 DGG GGA| B2 B A3| G3 D3| DGG GGA| B2 B B2 c| d2 c B2 c| d3- d3| ddd ffd|\
 c2 c A2 A| BBB A2 A| G2 G D2 D| G3 A3| fff d2 G/2G/2| BBB A2 A| G3- G2||\
